X:165
T:Forked Deer
C:Joel Glassman Solo
N:Transcribed by Mike Stangeland
R:bluegrass
L:1/8
Q:1/4=230
M:4/4
K:D
z8 | "D"[dD]e fg [a2A2] fa | "G"[g2^A2] gb [a=A]g fe | "D"[dD]e fg [aA]=f df | 
"A"ed cB Ac BA | "D"de fg [aA]f df | "G"[gA]b ag [fA]a ec | "D"[dD][BD] [AD]F "G"G[BG] A[AG] | 
"A"[AF][AG] [AE][AF] "D"[A2D2] Ac | de fg ag fa | "G"gf ge (3fgf ec | "D"dF A=c [fA]g af | 
"A"[eA]d cB [eA]c BA | "D"FA de fg af | ge fg [eA]f ec | "D"dB AF "G"[AG][AE] AG | 
"A"[AF]G [AE]F "D"[A2D2] EF | "A"[A2A2] A[ecA] [eBA][eA] [ec]B | AB A[AF] (3[AE]FE CE | 
AE Ac BA Bc | "D"dB A[AG] [AF]E D[AF] | "A"EF Ac BA Bc | AB AF ED EF | "D"DE FD "G"[A2E2] [AG][AE] | 
"A"[AF][AG] EF "D"[A2D2] FG | "A"[A2A2] Ac [eB][eA] [ec][eB] | [eA]B A[AF] (3[AE]F[AE] C[AE] | 
[AA]E Ac [eB][eA] [eB][ec] | "D"[ed]B AG [AF][AE] [AD][AF] | "A"[AE][AF] Ac [eB][eA] [eB][ec] | 
AB cd ed [ed][gd] | "D"[fA]e [dD][cD] "G"[dD][eA] fa | (3"A"[fA]gf ec "D"[d2D2] Ac | 


